src/ios-paper.svg

<?xml version="1.0" encoding="utf-8"?>
<!-- Generated by IcoMoon.io -->
<!DOCTYPE svg PUBLIC "-//W3C//DTD SVG 1.1//EN" "http://www.w3.org/Graphics/SVG/1.1/DTD/svg11.dtd">
<svg version="1.1" xmlns="http://www.w3.org/2000/svg" xmlns:xlink="http://www.w3.org/1999/xlink" width="512" height="512" viewBox="0 0 512 512">
<path fill="#000000" d="M112 64v336h-16v-288h-32v305.143c0 17.014 13.843 30.857 30.857 30.857h322.285c17.015 0 30.858-13.843 30.858-30.857v-353.143h-336zM160 112h128v16h-128v-16zM160 272h192v16h-192v-16zM400 368h-240v-16h240v16zM400 208h-240v-16h240v16z"></path>
</svg>

<?xml version="1.0" encoding="utf-8"?>
<!-- Generator: Adobe Illustrator 16.2.1, SVG Export Plug-In . SVG Version: 6.00 Build 0)  -->
<!DOCTYPE svg PUBLIC "-//W3C//DTD SVG 1.1//EN" "http://www.w3.org/Graphics/SVG/1.1/DTD/svg11.dtd">
<svg version="1.1" id="Layer_1" xmlns="http://www.w3.org/2000/svg" xmlns:xlink="http://www.w3.org/1999/xlink" x="0px" y="0px"
	 width="512px" height="512px" viewBox="0 0 512 512" enable-background="new 0 0 512 512" xml:space="preserve">
<path d="M112,64v16v32v288H96V112H64v305.143C64,434.157,77.843,448,94.857,448h322.285C434.157,448,448,434.157,448,417.143V64H112
	z M160,112h128v16H160V112z M160,272h192v16H160V272z M400,368H160v-16h240V368z M400,208H160v-16h240V208z"/>
</svg>
